src/img/ic_log-ejecutivo.svg

<svg width="32" height="32" viewBox="0 0 32 32" fill="none" xmlns="http://www.w3.org/2000/svg">
<path d="M21 20.493V23.0076C21 23.1483 20.9498 23.2655 20.8495 23.3593C20.7603 23.4531 20.6544 23.5 20.5318 23.5H11.4682C11.3456 23.5 11.2341 23.4531 11.1338 23.3593C11.0446 23.2655 11 23.1483 11 23.0076V20.493C11 19.8834 11.1171 19.303 11.3512 18.7521C11.5741 18.2011 11.8751 17.7263 12.2542 17.3277C12.6444 16.9174 13.1014 16.595 13.6254 16.3605C14.1494 16.1143 14.7012 15.9912 15.2809 15.9912H16.7191C17.2988 15.9912 17.8506 16.1143 18.3746 16.3605C18.8986 16.595 19.3501 16.9174 19.7291 17.3277C20.1193 17.7263 20.4259 18.2011 20.6488 18.7521C20.8829 19.303 21 19.8834 21 20.493ZM16 14.4965C16.7915 14.4965 17.466 14.2034 18.0234 13.6172C18.5808 13.0311 18.8595 12.3218 18.8595 11.4894C18.8595 10.6688 18.5808 9.96542 18.0234 9.37925C17.466 8.79308 16.7915 8.5 16 8.5C15.2085 8.5 14.534 8.79308 13.9766 9.37925C13.4192 9.96542 13.1405 10.6688 13.1405 11.4894C13.1405 12.3218 13.4192 13.0311 13.9766 13.6172C14.534 14.2034 15.2085 14.4965 16 14.4965Z" fill="#EC7000"/>
<rect x="1" y="1" width="30" height="30" rx="15" stroke="#EC7000" stroke-width="2"/>
</svg>

<svg width="32" height="32" fill="none" xmlns="http://www.w3.org/2000/svg"><path d="M21 20.493v2.515a.46.46 0 01-.15.351.424.424 0 01-.318.141h-9.064a.479.479 0 01-.334-.14.49.49 0 01-.134-.352v-2.515c0-.61.117-1.19.351-1.74a4.479 4.479 0 01.903-1.425c.39-.41.847-.733 1.371-.968a3.847 3.847 0 011.656-.369h1.438c.58 0 1.132.123 1.656.37.524.234.975.556 1.354.967.39.398.697.873.92 1.424.234.551.351 1.131.351 1.741zm-5-5.996c.791 0 1.466-.294 2.023-.88.558-.586.837-1.295.837-2.128 0-.82-.28-1.524-.837-2.11C17.466 8.793 16.791 8.5 16 8.5c-.791 0-1.466.293-2.023.88a2.954 2.954 0 00-.837 2.11c0 .832.28 1.541.837 2.127.557.586 1.232.88 2.023.88z" fill="#EC7000"/><rect x="1" y="1" width="30" height="30" rx="15" stroke="#EC7000" stroke-width="2"/></svg>
